img/docs.svg

<svg width="31" height="38" viewBox="0 0 31 38" fill="none" xmlns="http://www.w3.org/2000/svg">
<path d="M30.9981 14.1888V8.43579L22.3478 0H2.3358C1.05111 0 0 1.02528 0 2.27841V14.1888H30.9981Z" fill="#7BA7D3"/>
<path d="M0.00390625 14.1888V34.8692C0.00390625 36.1223 1.05502 37.1476 2.33971 37.1476H28.6642C29.9489 37.1476 31 36.1223 31 34.8692V14.1888H0.00390625Z" fill="white"/>
<g opacity="0.15">
<path opacity="0.15" d="M22.3596 0L21.9119 8.02758C21.9119 8.8497 22.6009 9.52183 23.4438 9.52183L30.9923 8.43389V8.4225L22.3596 0Z" fill="black"/>
</g>
<path d="M22.3595 0L22.3478 6.93774C22.3478 7.75987 23.0368 8.432 23.8797 8.432H30.9922V8.42061L22.3595 0Z" fill="#709DCA"/>
<path d="M4.29395 9.06805V5.32007H5.53971C6.02633 5.32007 6.42342 5.46816 6.72902 5.76626C7.03462 6.06245 7.18645 6.44408 7.18645 6.91116V7.48076C7.18645 7.94973 7.03462 8.33136 6.72902 8.62566C6.42342 8.91995 6.02828 9.06805 5.53971 9.06805H4.29395ZM4.93629 5.82322V8.5668H5.52219C5.84141 8.5668 6.09057 8.46617 6.27354 8.26301C6.45651 8.05985 6.54605 7.79973 6.54605 7.47886V6.90546C6.54605 6.58838 6.45456 6.32826 6.27354 6.127C6.09057 5.92385 5.84141 5.82322 5.52219 5.82322H4.93629Z" fill="white"/>
<path d="M10.7875 7.53208C10.7875 7.98966 10.6396 8.3694 10.3457 8.67129C10.0517 8.97318 9.66828 9.12317 9.19918 9.12317C8.73786 9.12317 8.36413 8.97318 8.07604 8.67129C7.78796 8.3694 7.64392 7.98966 7.64392 7.53208V6.85805C7.64392 6.40237 7.78796 6.02264 8.07604 5.72075C8.36413 5.41886 8.73786 5.26697 9.19723 5.26697C9.66634 5.26697 10.0498 5.41886 10.3457 5.72075C10.6415 6.02264 10.7895 6.40237 10.7895 6.85805V7.53208H10.7875ZM10.1491 6.85236C10.1491 6.54098 10.0634 6.28276 9.89213 6.0834C9.72084 5.88214 9.48921 5.78151 9.19723 5.78151C8.91499 5.78151 8.69309 5.88214 8.52958 6.0834C8.36607 6.28466 8.28432 6.54098 8.28432 6.85236V7.53208C8.28432 7.84726 8.36607 8.10738 8.52958 8.30864C8.69309 8.5099 8.91693 8.61053 9.19918 8.61053C9.4931 8.61053 9.72473 8.5099 9.89408 8.30864C10.0634 8.10738 10.1491 7.84916 10.1491 7.53208V6.85236Z" fill="white"/>
<path d="M14.2307 7.82638L14.2365 7.84157C14.2443 8.2213 14.1178 8.52889 13.857 8.76622C13.5981 9.00355 13.2458 9.12317 12.802 9.12317C12.3543 9.12317 11.9883 8.97697 11.708 8.68078C11.4277 8.38649 11.2876 8.01055 11.2876 7.55297V6.83907C11.2876 6.38339 11.4258 6.00555 11.7041 5.71126C11.9806 5.41506 12.3407 5.26697 12.7845 5.26697C13.238 5.26697 13.5961 5.38279 13.857 5.61632C14.1178 5.84986 14.2463 6.16124 14.2385 6.55427L14.2327 6.56946H13.6117C13.6117 6.31693 13.5416 6.12137 13.4015 5.98087C13.2613 5.84037 13.055 5.77012 12.7825 5.77012C12.5197 5.77012 12.3115 5.87075 12.1577 6.0739C12.0039 6.27706 11.926 6.52958 11.926 6.83527V7.55297C11.926 7.86245 12.0039 8.11687 12.1616 8.32003C12.3192 8.52319 12.5314 8.62382 12.7981 8.62382C13.0628 8.62382 13.2652 8.55547 13.4015 8.41686C13.5378 8.27826 13.6078 8.0827 13.6078 7.83018H14.2307V7.82638Z" fill="white"/>
<path d="M23.6577 20.1506H7.34412V21.1H23.6577V20.1506Z" fill="#ABADB9"/>
<path d="M23.6577 23.3783H7.34412V24.3276H23.6577V23.3783Z" fill="#ABADB9"/>
<path d="M23.6577 26.6061H7.34412V27.5554H23.6577V26.6061Z" fill="#ABADB9"/>
<path d="M17.4036 29.8339H7.34412V30.7832H17.4036V29.8339Z" fill="#ABADB9"/>
</svg>

<svg width="31" height="38" fill="none" xmlns="http://www.w3.org/2000/svg"><path d="M30.998 14.189V8.436L22.348 0H2.336C1.05 0 0 1.025 0 2.278v11.91h30.998z" fill="#7BA7D3"/><path d="M.004 14.189v20.68c0 1.253 1.051 2.279 2.336 2.279h26.324c1.285 0 2.336-1.026 2.336-2.279V14.19H.004z" fill="#fff"/><path opacity=".15" d="M22.36 0l-.448 8.028c0 .822.689 1.494 1.532 1.494l7.548-1.088v-.011L22.36 0z" fill="#000"/><path d="M22.36 0l-.012 6.938c0 .822.689 1.494 1.532 1.494h7.112v-.011L22.36 0z" fill="#709DCA"/><path d="M4.294 9.068V5.32H5.54c.486 0 .883.148 1.189.446.306.296.457.678.457 1.145v.57c0 .469-.151.85-.457 1.145-.306.294-.7.442-1.19.442H4.295zm.642-3.245v2.744h.586c.32 0 .569-.1.752-.304.183-.203.272-.463.272-.784v-.574c0-.317-.091-.577-.272-.778-.183-.203-.433-.304-.752-.304h-.586zM10.787 7.532c0 .458-.147.837-.441 1.14-.294.301-.678.451-1.147.451-.461 0-.835-.15-1.123-.452-.288-.302-.432-.681-.432-1.139v-.674c0-.456.144-.835.432-1.137.288-.302.662-.454 1.121-.454.47 0 .853.152 1.149.454.296.302.444.681.444 1.137v.674h-.002zm-.638-.68c0-.311-.086-.57-.257-.769-.171-.2-.403-.301-.695-.301-.282 0-.504.1-.667.301-.164.202-.246.458-.246.77v.68c0 .314.082.574.246.776.163.2.387.302.67.302.293 0 .525-.101.694-.302.17-.202.255-.46.255-.777v-.68zM14.23 7.826l.006.016c.008.38-.118.687-.379.924-.259.238-.611.357-1.055.357-.448 0-.814-.146-1.094-.442-.28-.295-.42-.67-.42-1.128v-.714c0-.456.138-.833.416-1.128.277-.296.637-.444 1.08-.444.454 0 .812.116 1.073.35.26.233.39.544.382.937l-.006.015h-.621c0-.252-.07-.448-.21-.588-.14-.14-.347-.21-.62-.21-.262 0-.47.1-.624.303-.154.203-.232.456-.232.761v.718c0 .31.078.564.236.767.157.203.37.304.636.304.265 0 .467-.069.604-.207.136-.139.206-.334.206-.587h.623v-.004z" fill="#fff"/><path d="M23.658 20.15H7.344v.95h16.314v-.95zM23.658 23.378H7.344v.95h16.314v-.95zM23.658 26.606H7.344v.95h16.314v-.95zM17.404 29.834H7.344v.95h10.06v-.95z" fill="#ABADB9"/></svg>
